demos/KANBAN/public/icons/Cost.svg

<svg width="30" height="30" viewBox="0 0 30 30" fill="none" xmlns="http://www.w3.org/2000/svg">
<rect width="30" height="30" rx="4" fill="#EBFFED"/>
<path d="M18.9397 13.089H12.8071C12.5688 13.089 12.3755 12.912 12.3755 12.6936C12.3755 12.4752 12.5687 12.2981 12.8071 12.2981H18.9394C19.1778 12.2981 19.3711 12.4751 19.3711 12.6936C19.3711 12.912 19.1778 13.089 18.9396 13.089H18.9397Z" fill="#58D365" fill-opacity="0.7"/>
<path d="M18.9397 15.9616H12.8071C12.5688 15.9616 12.3755 15.7846 12.3755 15.5661C12.3755 15.3477 12.5687 15.1707 12.8071 15.1707H18.9394C19.1778 15.1707 19.3711 15.3477 19.3711 15.5661C19.3711 15.7846 19.1778 15.9616 18.9396 15.9616H18.9397Z" fill="#58D365" fill-opacity="0.7"/>
<path d="M12.8705 18.6496C12.6321 18.6496 12.4388 18.4726 12.4388 18.2541C12.4388 18.0357 12.632 17.8586 12.8705 17.8586C15.1801 17.8586 17.1313 16.7554 17.1313 15.4496C17.1313 14.1437 15.18 13.0404 12.8705 13.0404C12.6321 13.0404 12.4388 12.8634 12.4388 12.645C12.4388 12.4266 12.632 12.2495 12.8705 12.2495C15.7439 12.2495 17.9947 13.6552 17.9947 15.4495C17.9947 17.2438 15.7439 18.6495 12.8705 18.6495V18.6496Z" fill="#58D365" fill-opacity="0.7"/>
<path d="M17.4823 23.3012C17.3673 23.3012 17.2527 23.2594 17.1676 23.1766L12.6097 18.7338C12.4464 18.5746 12.4549 18.3244 12.6286 18.1748C12.8023 18.0254 13.0753 18.0332 13.2387 18.1921L17.7966 22.635C17.9599 22.7942 17.9514 23.0444 17.7777 23.1939C17.6944 23.2656 17.5881 23.3012 17.4821 23.3012L17.4823 23.3012Z" fill="#58D365" fill-opacity="0.7"/>
<path d="M4.03194 15.2112H6.11574V26.3248C6.11574 26.7138 6.42137 27.0194 6.81033 27.0194H24.8699C25.2589 27.0194 25.5645 26.7138 25.5645 26.3248V15.2112H27.6483C28.2595 15.2112 28.5652 14.461 28.1483 14.0166L16.3401 2.20844C16.0622 1.93052 15.6178 1.93052 15.3676 2.20844L3.53213 14.0166C3.11525 14.461 3.42088 15.2112 4.03214 15.2112H4.03194ZM15.8401 3.68089L25.9813 13.822H24.87C24.481 13.822 24.1754 14.1277 24.1754 14.5166V25.6302H7.50503V14.5166C7.50503 14.1277 7.1994 13.822 6.81043 13.822H5.69917L15.8401 3.68089Z" fill="#58D365" fill-opacity="0.7"/>
</svg>

<svg xmlns="http://www.w3.org/2000/svg" width="30" height="30" fill="none"><rect width="30" height="30" fill="#EBFFED" rx="4"/><path fill="#58D365" fill-opacity=".7" d="M18.94 13.089h-6.133c-.238 0-.431-.177-.431-.395 0-.219.193-.396.431-.396h6.132c.239 0 .432.177.432.396 0 .218-.193.395-.431.395ZM18.94 15.962h-6.133c-.238 0-.431-.177-.431-.396 0-.218.193-.395.431-.395h6.132c.239 0 .432.177.432.395 0 .219-.193.396-.431.396Z"/><path fill="#58D365" fill-opacity=".7" d="M12.87 18.65c-.238 0-.431-.177-.431-.396 0-.218.193-.395.431-.395 2.31 0 4.261-1.104 4.261-2.41 0-1.305-1.951-2.409-4.26-2.409-.239 0-.432-.177-.432-.395 0-.218.193-.396.431-.396 2.874 0 5.125 1.406 5.125 3.2 0 1.795-2.251 3.2-5.125 3.2Z"/><path fill="#58D365" fill-opacity=".7" d="M17.482 23.301a.45.45 0 0 1-.314-.124l-4.558-4.443a.373.373 0 0 1 .019-.56.46.46 0 0 1 .61.018l4.558 4.443c.163.16.154.41-.02.559a.453.453 0 0 1-.295.107Z"/><path fill="#58D365" fill-opacity=".7" d="M4.032 15.211h2.084v11.114c0 .389.305.694.694.694h18.06a.688.688 0 0 0 .694-.694V15.21h2.084c.611 0 .917-.75.5-1.194L16.34 2.208c-.278-.277-.722-.277-.972 0L3.532 14.017c-.417.444-.111 1.194.5 1.194ZM15.84 3.681l10.141 10.141H24.87a.688.688 0 0 0-.695.695V25.63H7.505V14.517a.688.688 0 0 0-.695-.695H5.7L15.84 3.681Z"/></svg>
